icons/svgs/trophy-outline.svg

<svg width="24" height="24" viewBox="0 0 24 24" fill="none" xmlns="http://www.w3.org/2000/svg">
<path d="M10.9375 14.1094C11.4844 14.6953 11.9531 14.9688 12.2656 15.0469C12.3438 15.0859 12.4219 15.125 12.5 15.125C12.5391 15.125 12.6172 15.0859 12.7344 15.0469C13.0078 14.9688 13.4766 14.6953 14.0234 14.1094C15.0781 12.9375 16.5625 10.1641 16.8359 3.875H8.16406C8.39844 10.1641 9.88281 12.9375 10.9375 14.1094ZM16.875 2C17.8906 2 18.75 2.85938 18.7109 3.91406C18.6719 4.10938 18.6719 4.30469 18.6719 4.5H22.8125C23.3203 4.5 23.75 4.92969 23.75 5.4375C23.75 9.69531 21.9531 12.3906 19.7656 14.0703C17.6562 15.7109 15.2344 16.3359 13.9453 16.5703C13.75 16.6484 13.5938 16.7266 13.4375 16.8047V20.125H16.5625C17.0703 20.125 17.5 20.5547 17.5 21.0625C17.5 21.6094 17.0703 22 16.5625 22H12.5H8.4375C7.89062 22 7.5 21.6094 7.5 21.0625C7.5 20.5547 7.89062 20.125 8.4375 20.125H11.5625V16.8047C11.4062 16.7266 11.2109 16.6484 11.0547 16.5703C9.72656 16.3359 7.30469 15.7109 5.19531 14.0703C3.00781 12.3906 1.25 9.69531 1.25 5.4375C1.25 4.92969 1.64062 4.5 2.1875 4.5H6.28906C6.28906 4.30469 6.28906 4.10938 6.25 3.91406C6.21094 2.85938 7.07031 2 8.125 2H16.875ZM18.5156 6.375C18.1641 9.92969 17.3828 12.2734 16.4844 13.8359C17.1875 13.5234 17.9297 13.1328 18.6328 12.5859C20.1953 11.375 21.6016 9.46094 21.8359 6.375H18.5156ZM8.47656 13.8359C7.57812 12.2734 6.79688 9.92969 6.44531 6.375H3.125C3.35938 9.46094 4.76562 11.375 6.32812 12.5859C7.03125 13.1328 7.77344 13.5234 8.47656 13.8359Z" fill="black"/>
</svg>

<svg xmlns="http://www.w3.org/2000/svg" width="24" height="24" fill="currentColor" class="icon-trophy-outline" viewBox="0 0 24 24">
  <mask id="a" width="23" height="20" x="1" y="2" maskUnits="userSpaceOnUse" style="mask-type:alpha">
    <path d="M10.938 14.11c.546.585 1.015.859 1.328.937.078.039.156.078.234.078.04 0 .117-.04.234-.078.274-.078.743-.352 1.29-.938 1.054-1.171 2.539-3.945 2.812-10.234H8.164c.234 6.29 1.719 9.063 2.774 10.234M16.875 2c1.016 0 1.875.86 1.836 1.914-.04.195-.04.39-.04.586h4.142a.95.95 0 0 1 .937.938c0 4.257-1.797 6.953-3.984 8.632-2.11 1.64-4.532 2.266-5.82 2.5-.196.078-.352.157-.508.235v3.32h3.124a.95.95 0 0 1 .938.938c0 .546-.43.937-.937.937H8.438c-.547 0-.938-.39-.938-.937 0-.508.39-.938.938-.938h3.124v-3.32c-.156-.078-.351-.157-.507-.235-1.328-.234-3.75-.86-5.86-2.5C3.008 12.39 1.25 9.695 1.25 5.438c0-.508.39-.938.938-.938h4.101c0-.195 0-.39-.039-.586C6.21 2.86 7.07 2 8.125 2zm1.64 4.375c-.35 3.555-1.132 5.898-2.03 7.46.703-.312 1.445-.702 2.148-1.25 1.562-1.21 2.969-3.124 3.203-6.21zm-10.038 7.46c-.899-1.562-1.68-3.905-2.032-7.46h-3.32c.234 3.086 1.64 5 3.203 6.21.703.548 1.445.938 2.149 1.25"/>
  </mask>
  <g mask="url(#a)">
    <path d="M0 0h24v24H0z"/>
  </g>
</svg>
